src/app/components/golos-ui/Icon/assets/ic_newspaper.svg

<?xml version="1.0" encoding="UTF-8"?>
<svg width="26px" height="26px" viewBox="0 0 26 26" version="1.1" xmlns="http://www.w3.org/2000/svg" xmlns:xlink="http://www.w3.org/1999/xlink">
    <!-- Generator: Sketch 51.2 (57519) - http://www.bohemiancoding.com/sketch -->
    <title>ic_newspaper</title>
    <desc>Created with Sketch.</desc>
    <defs></defs>
    <g id="FAQ" stroke="none" stroke-width="1" fill="none" fill-rule="evenodd">
        <g transform="translate(-555.000000, -1370.000000)" fill="#FFC80A" id="Group-7">
            <g transform="translate(0.000000, 1202.000000)">
                <g id="Group-22" transform="translate(533.000000, 141.000000)">
                    <g id="ic_newspaper" transform="translate(22.000000, 27.000000)">
                        <path d="M24.1361046,22.2867322 C24.1361046,23.3121004 23.3048661,24.1433389 22.2794979,24.1433389 C21.2541297,24.1433389 20.4228912,23.3121004 20.4228912,22.2867322 L20.4228912,8.36204603 L24.1361046,8.36204603 L24.1361046,22.2867322 Z M3.71326778,24.1433389 C2.68784519,24.1433389 1.85660669,23.3121004 1.85660669,22.2867322 L1.85660669,1.863841 L18.5662301,1.863841 L18.5662301,22.2867322 C18.5684603,22.5105063 18.5911423,22.7336276 18.6340042,22.9532678 C18.6433054,23.0061925 18.6535314,23.0581381 18.6655523,23.1101381 C18.7114603,23.3204226 18.7754268,23.5263556 18.8567992,23.7255983 C18.8567992,23.7348996 18.8661004,23.7432762 18.8697992,23.7515983 C18.9269121,23.8859498 18.9920209,24.0167657 19.0647448,24.1433389 L3.71326778,24.1433389 Z M25.0644351,6.50543933 L20.4228912,6.50543933 L20.4228912,0.935564854 C20.4228912,0.422853556 20.007272,0.00723430962 19.4945607,0.00723430962 L0.928330544,0.00723430962 C0.415619247,0.00723430962 0,0.422853556 0,0.935564854 L0,22.2867322 C0,24.337523 1.66247699,26 3.71326778,26 L22.2794979,26 C24.3302887,26 25.9927657,24.337523 25.9927657,22.2867322 L25.9927657,7.43371548 C25.9927657,6.92105858 25.5771464,6.50543933 25.0644351,6.50543933 Z" id="Fill-1"></path>
                        <path d="M7.42648117,6.50543933 L12.9963556,6.50543933 C13.5090669,6.50543933 13.9246862,6.08982008 13.9246862,5.57710879 C13.9246862,5.06439749 13.5090669,4.64877824 12.9963556,4.64877824 L7.42648117,4.64877824 C6.91382427,4.64877824 6.49820502,5.06439749 6.49820502,5.57710879 C6.49820502,6.08982008 6.91382427,6.50543933 7.42648117,6.50543933" id="Fill-4"></path>
                        <path d="M15.7812929,9.29037657 L4.64154393,9.29037657 C4.12888703,9.29037657 3.71326778,9.70599582 3.71326778,10.2186527 C3.71326778,10.731364 4.12888703,11.1469833 4.64154393,11.1469833 L15.7812929,11.1469833 C16.2940042,11.1469833 16.7096234,10.731364 16.7096234,10.2186527 C16.7096234,9.70599582 16.2940042,9.29037657 15.7812929,9.29037657" id="Fill-5"></path>
                        <path d="M15.7812929,13.00359 L4.64154393,13.00359 C4.12888703,13.00359 3.71326778,13.4192092 3.71326778,13.9319205 C3.71326778,14.4446318 4.12888703,14.860251 4.64154393,14.860251 L15.7812929,14.860251 C16.2940042,14.860251 16.7096234,14.4446318 16.7096234,13.9319205 C16.7096234,13.4192092 16.2940042,13.00359 15.7812929,13.00359" id="Fill-6"></path>
                        <path d="M15.7812929,16.7168577 L4.64154393,16.7168577 C4.12888703,16.7168577 3.71326778,17.132477 3.71326778,17.6451883 C3.71326778,18.1578452 4.12888703,18.5734644 4.64154393,18.5734644 L15.7812929,18.5734644 C16.2940042,18.5734644 16.7096234,18.1578452 16.7096234,17.6451883 C16.7096234,17.132477 16.2940042,16.7168577 15.7812929,16.7168577" id="Fill-7"></path>
                        <path d="M15.7812929,20.4301255 L4.64154393,20.4301255 C4.12888703,20.4301255 3.71326778,20.8457448 3.71326778,21.3584017 C3.71326778,21.871113 4.12888703,22.2867322 4.64154393,22.2867322 L15.7812929,22.2867322 C16.2940042,22.2867322 16.7096234,21.871113 16.7096234,21.3584017 C16.7096234,20.8457448 16.2940042,20.4301255 15.7812929,20.4301255" id="Fill-8"></path>
                    </g>
                </g>
            </g>
        </g>
    </g>
</svg>

<svg width="26" height="26" viewBox="0 0 26 26" xmlns="http://www.w3.org/2000/svg"><g fill="#FFC80A" fill-rule="evenodd"><path d="M24.136 22.287a1.857 1.857 0 0 1-3.713 0V8.362h3.713v13.925zM3.713 24.143a1.857 1.857 0 0 1-1.856-1.856V1.864h16.71v20.423c.001.224.024.447.067.666a3.735 3.735 0 0 0 .223.772c0 .01.01.018.013.027.057.134.122.265.195.391H3.713zM25.064 6.505h-4.641V.935a.928.928 0 0 0-.928-.928H.928A.928.928 0 0 0 0 .936v21.35A3.713 3.713 0 0 0 3.713 26H22.28a3.713 3.713 0 0 0 3.714-3.713V7.434a.928.928 0 0 0-.929-.929z"/><path d="M7.426 6.505h5.57a.928.928 0 1 0 0-1.856h-5.57a.928.928 0 0 0 0 1.856m8.355 2.785H4.641a.928.928 0 0 0 0 1.857h11.14a.928.928 0 1 0 0-1.857m0 3.714H4.641a.928.928 0 0 0 0 1.856h11.14a.928.928 0 1 0 0-1.856m0 3.713H4.641a.928.928 0 0 0 0 1.856h11.14a.928.928 0 1 0 0-1.856m0 3.713H4.641a.928.928 0 0 0 0 1.857h11.14a.928.928 0 1 0 0-1.857"/></g></svg>
